!!!COM: Stadler, Maximilian
!!!CDT: 1748///-1833///
!!!COA: Haydn, Joseph
!!!OTL@@IT: Gioco filarmonico
!!!OTL@EN: Philharmonic Joke
!!!OTA@@IT: o sia maniera facile per comporre un infinito numero de minuetti e trio anche senza sapere il contrapunto
!!!OTA@EN: or the Art of Composing an Infinite Number of Minutes Without the Least Knowledge of Counterpoint
!!!PDT: 1781///
!!!PPR: Artaria
!!!SML: Gesellschaft der Musikfreundes, Vienna
!!!PPR2: Luigi Marescalchi
!!!PPP2: Napoli
!!!PDT2: 1790///
**kern	**kern	**kern
*Icello	*Ivioln	*Ivioln
*>[A,A,B,B,A]	*>[A,A,B,B,A]	*>[A,A,B,B,A]
*>norep[A,B]	*>norep[A,B]	*>norep[A,B]
*>A	*>A	*>A
*k[]	*k[]	*k[]
*M3/4	*M3/4	*M3/4
*MM120	*MM120	*MM120
!!section:  I
!!measure:  A
!!diceroll: 10
=98	=98	=98
4C	4e	4cc
4E	4g	16b
.	.	8.cc
4E	4g	16b
.	.	8.cc
!!section:  I
!!measure:  B
!!diceroll: 9
=84	=84	=84
4r	8.ee	8.gg
.	16ff	16aa
4G	8.dd	8.ff
.	16ee	16gg
4c	4cc	4ee
!!section:  I
!!measure:  C
!!diceroll: 8
=171	=171	=171
4A	4c	4ff
4B	4d	16gg
.	.	16ff
.	.	16ee
.	.	16dd
4c	4g	16ff
.	.	16ee
.	.	16dd
.	.	16cc
!!section:  I
!!measure:  D
!!diceroll: 8
=53	=53	=53
2G	4r	8cc
.	.	8b
.	4f	8dd
.	.	8b
4c	4e	4cc
!!section:  I
!!measure:  E
!!diceroll: 7
=154	=154	=154
4C	2G	8r
.	.	8ee
4BB	.	16ff
.	.	16ee
.	.	8dd
4AA	4e	16ee
.	.	16dd
.	.	8cc
!!section:  I
!!measure:  F
!!diceroll: 7
=68	=68	=68
4r	4r	[4d
4C	4d	16d]
.	.	16e
.	.	16f#
.	.	16g
4BB	4d	16a
.	.	16b
.	.	16cc
.	.	16dd
!!section:  I
!!measure:  G
!!diceroll: 5
=159	=159	=159
4C	16b	16dd
.	16a	16cc
.	16cc	16ee
.	16a	16cc
4D	4g	4b
4DD	4f#	4a
!!section:  I
!!measure:  H
!!diceroll: 3
=81	=81	=81
4GG	2.g	2.g
4D	.	.
4G	.	.
*>B	*>B	*>B
!!section:  II
!!measure:  A
!!diceroll: 9
=120	=120	=120
4r	4r	8b-
.	.	8a
4C#	4e	4.a
4C#	4e	.
.	.	8aa
!!section:  II
!!measure:  B
!!diceroll: 4
=139	=139	=139
4r	4r	16ee
.	.	16dd
.	.	16cc#
.	.	16dd
4D	12f	2a
.	12a	.
.	12dd	.
4D	12f	.
.	12a	.
.	12dd	.
!!section:  II
!!measure:  C
!!diceroll: 3
=126	=126	=126
8GG	2dd	2ff
8G	.	.
8BB	.	.
8G	.	.
8GG	8cc	8ee
8G	8b	8dd
!!section:  II
!!measure:  D
!!diceroll: 9
=166	=166	=166
8E	8cc	8cc
8G	8g	8g
8F	8f	8f
8E	8e	8e
8D	8d	8d
8C	8c	8c
!!section:  II
!!measure:  E
!!diceroll: 8
=43	=43	=43
2C	4f	16a
.	.	16cc
.	.	16b
.	.	16a
.	4d	8b
.	.	8dd
4C	4e	4cc
!!section:  II
!!measure:  F
!!diceroll: 5
=160	=160	=160
4r	4r	12f
.	.	12ff
.	.	12dd
4G	4d	12b
.	.	12dd
.	.	12f
4A	4c	4e
!!section:  II
!!measure:  G
!!diceroll: 10
=149	=149	=149
2F	4A	16a
.	.	16cc#
.	.	16dd
.	.	16ff
.	4f	4aa
4G	4d	4b
!!section:  II
!!measure:  H
!!diceroll: 9
=111	=111	=111
8C	2.cc	2.cc
8c	.	.
8G	.	.
8E	.	.
4C	.	.
*-	*-	*-
!!!END: 2004/11/01/
